src/assets/Devices/Generic Back.svg

<svg width="870" height="614" viewBox="0 0 870 614" fill="none" xmlns="http://www.w3.org/2000/svg">
<path d="M551.601 50.6759C470.302 50.8972 399.398 51.1452 318.043 50.6501V25.415H551.601V50.6759Z" stroke="white" stroke-width="1.88353"/>
<path d="M318.043 26.1865H551.601" stroke="white" stroke-width="5.65059"/>
<path d="M143.572 57.4764C141.849 60.0248 140.312 62.7388 138.887 65.6927C139.607 65.1525 140.405 64.5792 141.273 63.9778C141.892 61.7587 142.66 59.5866 143.572 57.4764Z" stroke="white" stroke-width="1.88353"/>
<path d="M250.208 43.6488C249.148 40.6049 247.712 37.7007 245.93 35.005L240.127 26.2275L232.041 9.7681C240.304 7.78703 248.409 6.29076 256.047 5.31294C257.059 5.18345 258.054 5.05496 259.034 4.92855L259.036 4.9283C279.432 2.29608 292.851 0.56435 296.436 9.55022C296.603 9.96971 296.766 10.3779 296.924 10.775L296.987 10.9341C301.209 21.5483 306.49 24.7505 316.161 25.4148V50.7321C286.037 50.7321 265.425 47.3691 250.208 43.6488Z" stroke="white" stroke-width="1.88353"/>
<path d="M232.039 10.5398C240.301 8.55876 248.406 7.06249 256.045 6.08466C257.056 5.95518 258.052 5.82669 259.031 5.70028L259.033 5.70003C279.43 3.0678 292.849 1.33608 296.433 10.3219C296.601 10.7414 296.763 11.1496 296.921 11.5468L296.984 11.7058C301.207 22.32 306.488 25.5222 316.159 26.1866" stroke="white" stroke-width="5.65059"/>
<path d="M727.411 59.1893C728.258 61.365 728.956 63.6003 729.497 65.8797C730.374 66.5222 731.188 67.1408 731.931 67.7311C730.544 64.6497 729.064 61.8276 727.411 59.1893Z" stroke="white" stroke-width="1.88353"/>
<path d="M620.023 43.7905C605.708 47.4698 585.441 50.7579 553.707 50.7579V25.4148C563.378 24.7505 568.659 21.5483 572.881 10.9341L572.905 10.875C573.075 10.4465 573.251 10.005 573.432 9.55022C577.017 0.56435 590.436 2.29608 610.833 4.9283L610.834 4.92855L610.843 4.92962C611.82 5.05569 612.813 5.18382 613.821 5.31294C621.573 6.30527 629.805 7.83156 638.195 9.85663L630.153 26.2275L624.35 35.005C622.54 37.7425 621.087 40.695 620.023 43.7905Z" stroke="white" stroke-width="1.88353"/>
<path d="M553.707 26.1866C563.378 25.5222 568.659 22.32 572.881 11.7058L572.905 11.6467C573.075 11.2182 573.251 10.7767 573.432 10.3219C577.017 1.33608 590.436 3.0678 610.833 5.70003L610.834 5.70028L610.843 5.70135C611.82 5.82742 612.813 5.95555 613.821 6.08466C621.573 7.077 629.805 8.60329 638.195 10.6284" stroke="white" stroke-width="5.65059"/>
<path d="M613.899 58.4834H256.695C249.698 97.9597 219.656 130.286 179.447 139.356C156.008 144.643 133.934 126.257 134.894 102.249L135.975 75.2322C121.83 91.4251 111.046 113.524 100.97 135.772C81.1934 179.44 3.96875 353.206 3.96875 467.836C3.96875 582.466 69.8923 606.12 77.4264 607.94C78.3624 608.166 79.342 608.462 80.3634 608.771C83.441 609.702 86.8982 610.747 90.6855 610.333C108.445 611.804 142.082 595.909 164.998 567.151C174.145 555.673 182.13 536.807 189.007 520.562C192.827 511.535 196.306 503.318 199.451 497.626C205.506 486.667 210.324 477.946 213.97 473.916C216.48 471.142 219.991 467.552 224.357 463.823C238.706 453.73 254.845 447.313 275.197 446.911C303.197 446.359 383.329 446.47 420.229 446.688V446.911C424.578 446.871 429.663 446.829 435.297 446.788C440.931 446.829 446.015 446.871 450.365 446.911V446.688C487.265 446.47 567.397 446.359 595.397 446.911C615.684 447.311 631.785 453.689 646.1 463.727C650.518 467.491 654.068 471.118 656.599 473.916C660.245 477.946 665.064 486.667 671.119 497.626C674.593 503.914 677.302 512.113 680.182 520.832L680.182 520.833C684.601 534.208 689.423 548.808 698.037 559.617C720.857 588.254 761.109 610.938 779.604 610.296C783.51 610.803 787.071 609.727 790.23 608.771C791.252 608.462 792.231 608.166 793.167 607.94C800.701 606.12 866.625 582.466 866.625 467.836C866.625 353.206 789.4 179.44 769.623 135.772C759.982 114.484 748.572 93.3675 734.707 77.4148L735.7 102.249C736.66 126.257 714.586 144.643 691.147 139.356C650.938 130.286 620.896 97.9597 613.899 58.4834Z" stroke="white" stroke-width="0.941764"/>
<path d="M135.975 75.2319C121.83 91.4249 111.046 113.524 100.97 135.771C81.1934 179.44 3.96875 353.205 3.96875 467.836C3.96875 582.466 69.8923 606.12 77.4264 607.94C78.3624 608.166 79.342 608.462 80.3634 608.771C83.441 609.702 86.8982 610.747 90.6855 610.333C108.445 611.803 142.082 595.909 164.998 567.151C174.145 555.673 182.13 536.807 189.007 520.562C192.827 511.535 196.306 503.317 199.451 497.626C205.506 486.667 210.324 477.946 213.97 473.916C216.48 471.142 219.991 467.552 224.357 463.823C238.706 453.73 254.845 447.312 275.197 446.911C303.197 446.359 383.329 446.47 420.229 446.688V446.911C424.578 446.871 429.663 446.829 435.297 446.788C440.931 446.829 446.015 446.871 450.365 446.911V446.688C487.265 446.47 567.397 446.359 595.397 446.911C615.684 447.311 631.785 453.689 646.1 463.727C650.518 467.49 654.068 471.118 656.599 473.916C660.245 477.946 665.064 486.667 671.119 497.626C674.593 503.914 677.302 512.112 680.182 520.832L680.182 520.833C684.601 534.208 689.423 548.807 698.037 559.617C720.857 588.253 761.109 610.938 779.604 610.296C783.51 610.803 787.071 609.726 790.23 608.771C791.252 608.462 792.231 608.166 793.167 607.94C800.701 606.12 866.625 582.466 866.625 467.836C866.625 353.205 789.4 179.44 769.623 135.771C759.982 114.484 748.572 93.3673 734.707 77.4146" stroke="white" stroke-width="6" stroke-linecap="round" stroke-linejoin="round"/>
<path d="M680.773 137.592C680.773 228.74 709.026 291.405 735.396 359.767C761.765 428.129 780.6 519.277 778.717 610.426" stroke="white" stroke-width="0.470882"/>
<path d="M187.922 137.592C187.922 228.74 159.669 291.405 133.3 359.767C106.93 428.129 88.0948 519.277 89.9784 610.426" stroke="white" stroke-width="0.470882"/>
<path d="M561.641 431.893C561.641 433.439 560.375 434.965 558.039 436.133C555.732 437.287 552.51 438.014 548.927 438.014C545.343 438.014 542.122 437.287 539.814 436.133C537.479 434.965 536.213 433.439 536.213 431.893C536.213 430.347 537.479 428.821 539.814 427.653C542.122 426.499 545.343 425.772 548.927 425.772C552.51 425.772 555.732 426.499 558.039 427.653C560.375 428.821 561.641 430.347 561.641 431.893Z" stroke="white" stroke-width="0.941764"/>
<path d="M554.108 430.009C554.108 430.515 553.685 431.1 552.713 431.586C551.769 432.058 550.431 432.364 548.928 432.364C547.425 432.364 546.087 432.058 545.143 431.586C544.17 431.1 543.748 430.515 543.748 430.009C543.748 429.504 544.17 428.919 545.143 428.433C546.087 427.961 547.425 427.655 548.928 427.655C550.431 427.655 551.769 427.961 552.713 428.433C553.685 428.919 554.108 429.504 554.108 430.009Z" stroke="white" stroke-width="0.941764"/>
<rect x="375.17" y="422.946" width="124.637" height="17.4226" rx="3.29618" stroke="white" stroke-width="0.941764"/>
<rect x="373.052" y="418.473" width="128.875" height="23.0732" rx="4.47338" stroke="white" stroke-width="0.470882"/>
<path d="M238.803 36.0917L238.851 36.1797L238.909 36.2607L244.712 44.3101C247.004 47.4882 248.694 50.991 249.716 54.6716C251.634 61.5733 251.137 68.8527 248.29 75.4872L247.232 77.9538L242.851 87.3787C241.738 89.7749 240.4 92.0802 238.853 94.2688L237.027 96.8514C225.608 113.006 208.713 125.305 188.911 131.843L185.08 133.108C174.058 136.746 161.811 135.373 152.083 129.426C148.088 126.984 145.037 123.483 143.324 119.42L142.794 118.161C140.594 112.945 139.609 107.37 139.897 101.792L141.089 78.6736C141.98 69.0836 146.213 59.9909 153.19 52.7452L153.775 52.1381C156.706 49.0938 159.37 45.8388 161.739 42.4037L181.941 13.1151L180.757 12.2989L181.941 13.1151C182.551 12.2304 183.283 11.4164 184.12 10.6935L183.14 9.55794L184.12 10.6935C185.657 9.36729 187.516 8.37695 189.556 7.80854L194.488 6.43447C200.913 4.64461 207.773 4.63364 214.205 6.40303L219.698 7.91445C221.498 8.40942 223.123 9.30297 224.432 10.504C225.301 11.3009 226.016 12.2186 226.551 13.218L238.803 36.0917ZM727.486 118.161L728.869 118.744L727.486 118.161L726.956 119.42C725.243 123.483 722.191 126.984 718.197 129.426C708.469 135.373 696.221 136.746 685.2 133.108L681.369 131.843C661.567 125.305 644.672 113.006 633.253 96.8514L631.427 94.2688C629.88 92.0802 628.542 89.7749 627.428 87.3787L623.048 77.9541L621.99 75.4872L620.611 76.0786L621.99 75.4872C619.143 68.8527 618.646 61.5733 620.564 54.6716C621.586 50.991 623.276 47.4882 625.568 44.3101L631.371 36.2607L631.429 36.1797L631.476 36.0917L643.729 13.218L642.407 12.5097L643.729 13.218C644.264 12.2186 644.979 11.3009 645.848 10.504L644.834 9.39849L645.848 10.504C647.157 9.30297 648.782 8.40943 650.581 7.91445L656.075 6.40303C662.507 4.63364 669.367 4.64461 675.792 6.43447L680.724 7.80854C682.764 8.37695 684.623 9.36729 686.16 10.6935C686.997 11.4164 687.729 12.2305 688.339 13.1151L689.574 12.2635L688.339 13.1151L708.541 42.4037C710.91 45.8388 713.574 49.0938 716.505 52.1381L717.09 52.7452L718.17 51.7047L717.09 52.7452C724.067 59.9909 728.3 69.0837 729.191 78.6737L730.383 101.792C730.671 107.37 729.686 112.945 727.486 118.161Z" stroke="white" stroke-width="3"/>
</svg>

<svg width="870" height="614" fill="none" xmlns="http://www.w3.org/2000/svg"><path d="M551.602 50.676c-81.298.221-152.202.47-233.557-.026V25.415h233.557v25.26Z" stroke="#fff" stroke-width="1.884"/><path d="M318.045 26.186h233.557" stroke="#fff" stroke-width="5.651"/><path d="M143.572 57.476c-1.723 2.549-3.26 5.263-4.685 8.217a77.99 77.99 0 0 1 2.386-1.715 50.775 50.775 0 0 1 2.299-6.502Zm106.636-13.827a38.833 38.833 0 0 0-4.278-8.644l-5.803-8.778-8.086-16.459c8.263-1.981 16.368-3.477 24.006-4.455l2.987-.384h.002c20.396-2.633 33.815-4.365 37.4 4.621l.488 1.225.063.16c4.222 10.613 9.503 13.815 19.174 14.48v25.317c-30.124 0-50.736-3.363-65.953-7.083Z" stroke="#fff" stroke-width="1.884"/><path d="M232.041 10.54c8.262-1.981 16.367-3.478 24.006-4.455a2903 2903 0 0 0 2.986-.385h.002c20.397-2.632 33.816-4.364 37.4 4.622l.488 1.225.063.159c4.223 10.614 9.504 13.816 19.175 14.48" stroke="#fff" stroke-width="5.651"/><path d="M727.413 59.19a50.745 50.745 0 0 1 2.086 6.69 78.01 78.01 0 0 1 2.434 1.851c-1.387-3.081-2.867-5.903-4.52-8.542Zm-107.388-15.4c-14.315 3.68-34.582 6.968-66.316 6.968V25.415c9.671-.665 14.952-3.867 19.174-14.48l.024-.06.527-1.325c3.585-8.986 17.004-7.254 37.4-4.622h.002l.009.002 2.978.383c7.752.992 15.984 2.519 24.374 4.544l-8.042 16.37-5.803 8.778a38.793 38.793 0 0 0-4.327 8.785Z" stroke="#fff" stroke-width="1.884"/><path d="M553.709 26.187c9.671-.665 14.952-3.867 19.174-14.481l.024-.06.527-1.324c3.585-8.986 17.004-7.254 37.4-4.622h.002l.009.001c.977.126 1.969.255 2.978.384 7.752.992 15.984 2.518 24.374 4.543" stroke="#fff" stroke-width="5.651"/><path d="M613.9 58.483H256.696c-6.997 39.477-37.039 71.803-77.248 80.873-23.439 5.287-45.513-13.099-44.553-37.107l1.081-27.017c-14.145 16.193-24.929 38.292-35.005 60.54C81.194 179.44 3.97 353.206 3.97 467.836c0 114.63 65.923 138.284 73.457 140.104.936.226 1.916.522 2.937.831 3.078.931 6.535 1.976 10.322 1.562 17.76 1.471 51.397-14.424 74.313-43.182 9.147-11.478 17.132-30.344 24.009-46.589 3.82-9.027 7.299-17.244 10.444-22.936 6.055-10.959 10.873-19.68 14.519-23.71a113.792 113.792 0 0 1 10.387-10.093c14.349-10.093 30.488-16.51 50.84-16.912 28-.552 108.132-.441 145.032-.223v.223c4.349-.04 9.434-.082 15.068-.123a7950.4 7950.4 0 0 1 15.068.123v-.223c36.9-.218 117.032-.329 145.032.223 20.287.4 36.388 6.778 50.703 16.816a113.78 113.78 0 0 1 10.499 10.189c3.646 4.03 8.465 12.751 14.52 23.71 3.474 6.288 6.183 14.487 9.063 23.206v.001c4.419 13.375 9.241 27.975 17.855 38.784 22.82 28.637 63.072 51.321 81.567 50.679 3.906.507 7.466-.569 10.626-1.525 1.022-.309 2.001-.605 2.937-.831 7.534-1.82 73.458-25.474 73.458-140.104 0-114.63-77.225-288.396-97.002-332.064-9.641-21.288-21.051-42.404-34.916-58.357l.993 24.834c.96 24.008-21.114 42.394-44.553 37.107-40.209-9.07-70.251-41.396-77.248-80.873Z" stroke="#fff" stroke-width=".942"/><path d="M135.976 75.232c-14.145 16.193-24.929 38.292-35.005 60.539C81.194 179.44 3.97 353.205 3.97 467.836c0 114.63 65.923 138.284 73.457 140.104.936.226 1.916.522 2.937.831 3.078.931 6.535 1.976 10.322 1.562 17.76 1.47 51.397-14.424 74.313-43.182 9.147-11.478 17.132-30.344 24.009-46.589 3.82-9.027 7.299-17.245 10.444-22.936 6.055-10.959 10.873-19.68 14.519-23.71a113.792 113.792 0 0 1 10.387-10.093c14.349-10.093 30.488-16.511 50.84-16.912 28-.552 108.132-.441 145.032-.223v.223c4.349-.04 9.434-.082 15.068-.123a7950.4 7950.4 0 0 1 15.068.123v-.223c36.9-.218 117.032-.329 145.032.223 20.287.4 36.388 6.778 50.703 16.816a113.65 113.65 0 0 1 10.499 10.189c3.646 4.03 8.465 12.751 14.52 23.71 3.474 6.288 6.183 14.486 9.063 23.206v.001c4.419 13.375 9.241 27.974 17.855 38.784 22.82 28.636 63.072 51.321 81.567 50.679 3.906.507 7.466-.57 10.626-1.525 1.022-.309 2.001-.605 2.937-.831 7.534-1.82 73.458-25.474 73.458-140.104 0-114.631-77.225-288.396-97.002-332.065-9.641-21.287-21.051-42.404-34.916-58.356" stroke="#fff" stroke-width="6" stroke-linecap="round" stroke-linejoin="round"/><path d="M680.774 137.592c0 91.148 28.253 153.813 54.623 222.175 26.369 68.362 45.204 159.51 43.321 250.659M187.923 137.592c0 91.148-28.253 153.813-54.622 222.175-26.37 68.362-45.205 159.51-43.322 250.659" stroke="#fff" stroke-width=".471"/><path d="M561.642 431.893c0 1.546-1.266 3.073-3.602 4.24-2.307 1.154-5.529 1.882-9.112 1.882-3.584 0-6.805-.728-9.113-1.882-2.335-1.167-3.601-2.694-3.601-4.24 0-1.546 1.266-3.072 3.601-4.24 2.308-1.154 5.529-1.881 9.113-1.881 3.583 0 6.805.727 9.112 1.881 2.336 1.168 3.602 2.694 3.602 4.24Z" stroke="#fff" stroke-width=".942"/><path d="M554.108 430.009c0 .506-.423 1.091-1.395 1.577-.944.472-2.282.778-3.785.778-1.503 0-2.841-.306-3.785-.778-.973-.486-1.395-1.071-1.395-1.577 0-.505.422-1.09 1.395-1.576.944-.472 2.282-.778 3.785-.778 1.503 0 2.841.306 3.785.778.972.486 1.395 1.071 1.395 1.576Z" stroke="#fff" stroke-width=".942"/><rect x="375.172" y="422.946" width="124.637" height="17.423" rx="3.296" stroke="#fff" stroke-width=".942"/><rect x="373.053" y="418.473" width="128.875" height="23.073" rx="4.473" stroke="#fff" stroke-width=".471"/><path d="m238.804 36.092.048.088.058.08 5.803 8.05a32.654 32.654 0 0 1 5.004 10.362c1.918 6.901 1.421 14.18-1.426 20.815l-1.058 2.467-4.381 9.425a44.196 44.196 0 0 1-3.998 6.89l-1.826 2.582c-11.419 16.155-28.314 28.454-48.116 34.992l-3.831 1.265c-11.022 3.638-23.269 2.265-32.997-3.682-3.995-2.442-7.046-5.943-8.759-10.006l-.53-1.259c-2.2-5.216-3.185-10.791-2.898-16.369l1.193-23.118c.891-9.59 5.124-18.683 12.101-25.929l.585-.607a77.392 77.392 0 0 0 7.964-9.734l20.202-29.289-1.184-.816 1.184.816a12.823 12.823 0 0 1 2.179-2.421l-.98-1.136.98 1.136a14.115 14.115 0 0 1 5.436-2.885l4.932-1.375a37.076 37.076 0 0 1 19.717-.031l5.493 1.511c1.8.495 3.425 1.389 4.734 2.59a10.26 10.26 0 0 1 2.119 2.714l12.252 22.874Zm488.683 82.069 1.383.583-1.383-.583-.53 1.259c-1.713 4.063-4.765 7.564-8.759 10.006-9.728 5.947-21.976 7.32-32.997 3.682l-3.831-1.265c-19.802-6.538-36.697-18.837-48.116-34.992l-1.826-2.582a44.282 44.282 0 0 1-3.999-6.89l-4.38-9.425-1.058-2.467-1.379.592 1.379-.592c-2.847-6.634-3.344-13.914-1.426-20.815a32.654 32.654 0 0 1 5.004-10.362l5.803-8.05.058-.08.047-.088 12.253-22.874-1.322-.708 1.322.708c.535-1 1.25-1.917 2.119-2.714l-1.014-1.106 1.014 1.106c1.309-1.201 2.934-2.095 4.733-2.59l5.494-1.511a37.076 37.076 0 0 1 19.717.031l4.932 1.375a14.115 14.115 0 0 1 5.436 2.885 12.826 12.826 0 0 1 2.179 2.421l1.235-.851-1.235.851 20.202 29.289a77.392 77.392 0 0 0 7.964 9.734l.585.607 1.08-1.04-1.08 1.04c6.977 7.246 11.21 16.339 12.101 25.929l1.192 23.118c.288 5.578-.697 11.153-2.897 16.369Z" stroke="#fff" stroke-width="3"/></svg>
